src/standard/calendar.svg

<svg xmlns="http://www.w3.org/2000/svg" viewBox="0 0 36 36">
  <path d="M31 4.38H5a.62.62 0 0 0-.62.62v20a.76.76 0 0 0 .18.44l6 6a.67.67 0 0 0 .44.18h20a.62.62 0 0 0 .62-.62V5a.62.62 0 0 0-.62-.62Zm-.62 1.24v3.76h-4.76V8a.62.62 0 0 0-1.24 0v1.38H11.62V8a.62.62 0 1 0-1.24 0v1.38H5.62V5.62Zm-20 23.87-3.87-3.87h3.87Zm1.24.89V25a.62.62 0 0 0-.62-.62H5.62V10.62h4.76V12a.62.62 0 0 0 1.24 0v-1.38h12.76V12a.62.62 0 1 0 1.24 0v-1.38h4.76v19.76Z"/>
</svg>

<svg id="bc3c1cd3-6b2a-4059-9646-3e00a8aa8554" data-name="Icon" xmlns="http://www.w3.org/2000/svg" viewBox="0 0 36 36">
  <title>Calendar icon - Black</title>
<desc>time, planning, project, date, invite, meeting, busy, focus, media and documents</desc>
<metadata><?xpacket begin="﻿" id="W5M0MpCehiHzreSzNTczkc9d"?>
<x:xmpmeta xmlns:x="adobe:ns:meta/" x:xmptk="Adobe XMP Core 8.0-c001 1.000000, 0000/00/00-00:00:00        ">
   <rdf:RDF xmlns:rdf="http://www.w3.org/1999/02/22-rdf-syntax-ns#">
      <rdf:Description rdf:about=""
            xmlns:xmp="http://ns.adobe.com/xap/1.0/"
            xmlns:dc="http://purl.org/dc/elements/1.1/"
            xmlns:cq="http://www.day.com/jcr/cq/1.0"
            xmlns:tiff="http://ns.adobe.com/tiff/1.0/">
         <xmp:rhcc-effective-on>2023-12-08T17:36:50.079Z</xmp:rhcc-effective-on>
         <xmp:rhcc-metadata-complete-moderator>pending</xmp:rhcc-metadata-complete-moderator>
         <xmp:rhcc-translation-id>TRAa5399000-d4ae-4ba6-b281-1b8600be1e5e</xmp:rhcc-translation-id>
         <xmp:brand-content-type>Icon</xmp:brand-content-type>
         <xmp:CreateDate>2023-12-08T17:36:50.079Z</xmp:CreateDate>
         <xmp:rhcc-effective-on-set-on-upload>true</xmp:rhcc-effective-on-set-on-upload>
         <xmp:rhcc-metadata-complete-uploader>pending</xmp:rhcc-metadata-complete-uploader>
         <xmp:rhcc-file-last-modified>2023-12-08T17:38:16.001Z</xmp:rhcc-file-last-modified>
         <xmp:rhcc-audience>rhcc-audience:internal</xmp:rhcc-audience>
         <xmp:rhcc-rights-restricted>no</xmp:rhcc-rights-restricted>
         <xmp:brand-content-subtype>Icon</xmp:brand-content-subtype>
         <xmp:rhcc-derivative-id>DERa5399000-d4ae-4ba6-b281-1b8600be1e5e</xmp:rhcc-derivative-id>
         <xmp:brand-logo-color>Black</xmp:brand-logo-color>
         <xmp:rhcc-notify-portal-subscribers-on-change>yes</xmp:rhcc-notify-portal-subscribers-on-change>
         <dc:format>image/svg+xml</dc:format>
         <dc:modified>2024-02-09T20:19:29.038Z</dc:modified>
         <dc:title>
            <rdf:Alt>
               <rdf:li xml:lang="x-default">Calendar icon - Black</rdf:li>
            </rdf:Alt>
         </dc:title>
         <dc:description>
            <rdf:Alt>
               <rdf:li xml:lang="x-default">time, planning, project, date, invite, meeting, busy, focus, media and documents</rdf:li>
            </rdf:Alt>
         </dc:description>
         <cq:lastReplicationAction_scene7>Activate</cq:lastReplicationAction_scene7>
         <cq:lastReplicationAction_publish>Activate</cq:lastReplicationAction_publish>
         <cq:lastReplicated_publish>2024-02-09T21:56:50.543Z</cq:lastReplicated_publish>
         <cq:lastReplicatedBy>workflow-process-service</cq:lastReplicatedBy>
         <cq:lastReplicationAction>Activate</cq:lastReplicationAction>
         <cq:lastReplicatedBy_publish>workflow-process-service</cq:lastReplicatedBy_publish>
         <cq:isDelivered>true</cq:isDelivered>
         <cq:lastReplicated>2024-02-09T21:56:50.543Z</cq:lastReplicated>
         <cq:lastReplicatedBy_scene7>workflow-process-service</cq:lastReplicatedBy_scene7>
         <cq:lastReplicated_scene7>2024-02-09T21:56:50.543Z</cq:lastReplicated_scene7>
         <tiff:ImageLength>36</tiff:ImageLength>
         <tiff:ImageWidth>36</tiff:ImageWidth>
      </rdf:Description>
   </rdf:RDF>
</x:xmpmeta>
                                                                                                    
                                                                                                    
                                                                                                    
                                                                                                    
                                                                                                    
                                                                                                    
                                                                                                    
                                                                                                    
                                                                                                    
                                                                                                    
                                 
<?xpacket end="w"?></metadata>
<path d="M31,4.38H5A.62.62,0,0,0,4.38,5V25a.76.76,0,0,0,.18.44l6,6a.67.67,0,0,0,.44.18H31a.62.62,0,0,0,.62-.62V5A.62.62,0,0,0,31,4.38Zm-.62,1.24V9.38H25.62V8a.62.62,0,0,0-1.24,0V9.38H11.62V8a.62.62,0,1,0-1.24,0V9.38H5.62V5.62Zm-20,23.87L6.51,25.62h3.87Zm1.24.89V25a.62.62,0,0,0-.62-.62H5.62V10.62h4.76V12a.62.62,0,0,0,1.24,0V10.62H24.38V12a.62.62,0,1,0,1.24,0V10.62h4.76V30.38Z"/>
</svg>
